X: 326
T:Duke Marlborough's March. JaW.325
M:C|
Q:200
C:"James Winder 1836"
S:James Winder Ms, Lancashire, 1835-41
R:March
O:England
A:Wyresdale,Lancashire
N:After the Tune, very bold "James Winder 1836"..
H:1/8
Z:vmp.Chris Partington, Aug 2004
K:D
A4|d2dd dddd|d6cB|AGFG AGFG|A4D2de|!
f2ff ffff|f6gf|edcd edcd|e6A2|!
d2dfe2ef|d2dfe2ef|{a}fedc B3A|A6||!
E2|A2AA AAAA|A6A2|dcded2A2|d6e2|!
ffff eeee|ffff eeee|fgfg (g3f/g)|a6ag|!
fedcA2dc|BAGFE2E2|e6ef|g2fef2d2|!
efedc2BA|d2efB2c2|d4|d8|]
